src/assets/ic_rules_sep.svg

<svg width="67" height="35" viewBox="0 0 67 35" fill="none" xmlns="http://www.w3.org/2000/svg">
<path id="Vector" d="M49.9287 8.37619L53.4515 1.90561C53.7244 1.40637 54.1442 1.00193 54.658 0.743248C55.1719 0.48457 55.7568 0.383237 56.339 0.452015C56.9211 0.520793 57.4746 0.756606 57.9296 1.12974C58.3846 1.50287 58.7207 1.99662 58.8957 2.54877L66.8267 27.2169L41.8047 33.9408C41.4338 34.0443 41.0436 34.0743 40.6564 34.0289C40.2692 33.9835 39.8928 33.8637 39.5487 33.6764C39.2047 33.4891 38.8997 33.2379 38.6515 32.9374C38.4033 32.6368 38.2167 32.2928 38.1023 31.9251C37.8694 31.1837 37.9435 30.3904 38.3084 29.7197L41.7349 23.4261C34.4408 19.6779 13.4187 5.02371 0.795089 14.2131C10.2869 -3.22097 36.3939 1.00734 49.9287 8.37619Z" fill="#F28EFF"/>
</svg>

<svg width="67" height="35" fill="none" xmlns="http://www.w3.org/2000/svg"><path d="m49.929 8.376 3.523-6.47c.272-.5.692-.904 1.206-1.163a2.965 2.965 0 0 1 1.681-.291 3.083 3.083 0 0 1 1.59.678c.456.373.792.867.967 1.419l7.93 24.668-25.021 6.724c-.371.103-.761.133-1.149.088a3.065 3.065 0 0 1-2.005-1.092 2.983 2.983 0 0 1-.549-1.012 2.83 2.83 0 0 1 .206-2.205l3.427-6.294C34.44 19.678 13.419 5.024.795 14.213 10.287-3.22 36.394 1.007 49.93 8.376z" fill="#F28EFF"/></svg>
